X: 1
T: Larach Alasdair
R: jig
Z: 2005 John Chambers <jc:trillian.mit.edu>
S: Hanneke Cassel
M: 6/8
L: 1/8
K: Amix
e \
|:"A"AAA a2e | "D"f2d  "A"ecA |    AAA    a2e | "G"g2e dBG \
| "A"AAA a2e | "D"f2d "Em"efg | "A"agf "G"g2e |    d2g dBG :|
[|"A"AAe c2e |    AAf     ecA |    AAe    c2e | "G"BBg dBG \
| "A"AAe c2e | "D"d2e  "G"BBg | "D"agf "G"g2e |    d2g dBG ||
||"A"AAe c2e |    AAf     ecA |    AAe    c2e | "G"BBg dBG \
| "A"AAA c2A | "D"d2e  "A"g2e | "D"agf "G"g2e |    d2g dBG |]
